src/assets/filled/MessageSquare.svg

<?xml version="1.0" encoding="UTF-8"?>
<svg width="24" height="24" viewBox="0 0 24 24" xmlns="http://www.w3.org/2000/svg">
 <path d="m16.19 2h-8.38c-3.64 0-5.81 2.17-5.81 5.81v8.37c0 3.65 2.17 5.82 5.81 5.82h8.37c3.64 0 5.81-2.17 5.81-5.81v-8.38c0.01-3.64-2.16-5.81-5.8-5.81zm2.09 10.91c0 0.2-0.01 0.4-0.03 0.59-0.18 2.12-1.43 3.18-3.73 3.18h-0.32c-0.2 0-0.39 0.09-0.5 0.25l-0.94 1.26c-0.42 0.56-1.09 0.56-1.51 0l-0.94-1.26c-0.1-0.13-0.33-0.25-0.5-0.25h-0.32c-2.51 0-3.76-0.62-3.76-3.76v-3.16c0-2.3 1.06-3.55 3.18-3.73 0.17-0.02 0.37-0.03 0.58-0.03h5.03c2.51 0 3.76 1.26 3.76 3.76v3.15z"/>
</svg>

<svg width="24" height="24" viewBox="0 0 24 24"  xmlns="http://www.w3.org/2000/svg">
<path d="M16.19 2H7.81C4.17 2 2 4.17 2 7.81V16.18C2 19.83 4.17 22 7.81 22H16.18C19.82 22 21.99 19.83 21.99 16.19V7.81C22 4.17 19.83 2 16.19 2ZM18.28 12.91C18.28 13.11 18.27 13.31 18.25 13.5C18.07 15.62 16.82 16.68 14.52 16.68H14.2C14 16.68 13.81 16.77 13.7 16.93L12.76 18.19C12.34 18.75 11.67 18.75 11.25 18.19L10.31 16.93C10.21 16.8 9.98 16.68 9.81 16.68H9.49C6.98 16.68 5.73 16.06 5.73 12.92V9.76C5.73 7.46 6.79 6.21 8.91 6.03C9.08 6.01 9.28 6 9.49 6H14.52C17.03 6 18.28 7.26 18.28 9.76V12.91Z" />
</svg>
